X:1
T:I Want to Go There
T:David S. Sullins, 1899
T:I Want to Go There
T:Public Domain
T:Public Domain
T:Public Domain
C:David S. Sullins, 1899
Z:Public Domain
%%score 1 ( 2 3 )
L:1/8
M:6/8
K:A
V:1 treble 
V:2 bass 
V:3 bass 
V:1
 ([CE]/[CE]/) | [CE]2 [CE]/[CE]/ [CE]<[CE][CE] | [DF]2 [DA]/[DA]/ [CE]2 [CE] | %3
w: 1.~They *|tell of a ci- ty far|up in the sky, I|
w: 2.~Its *|gates are all pea- rl, its|streets are all gold, I|
w: 3.~When *|the old ship of Zion shall|make her last trip, I|
w: 4.~When *|Je- sus is crow- ned the|King of all kings, I|
 [EA]2 [EA]/[EA]/ [EB]2 [EA] | [Ec]3 z2 [CE] | [CE]2 [CE]/[CE]/ [CE]2 [CE]/[CE]/ | %6
w: want to go there, I|do; ’Tis|built in the land of the|
w: want to go there, I|do; The|Lamb is the light of the|
w: want to be there, I|do; With|heads all un- cov- ered to|
w: want to be there, I|do; With|shout- ing and clap- ping till|
 [DF]2 [DA]/[DA]/ [CE]2 [CE] | [EA][EB][Ec] [DB]2 [CA] | [CA]3 z2 ([CA]/[CA]/) | %9
w: “sweet by and by,” I|want to go there, don’t|you? There *|
w: ci- ty we’re told, I|want to go there don’t|you? Death *|
w: greet the old ship, I|want to be there, don’t|you? When *|
w: all Heav- en rings, I|want to be there, don’t|you? Hal- *|
 [Ec]2 [Ec]/[Ec]/ [Ec]2 [EA]/[EA]/ | [FB][FA][DF] [CE]2 [CE] | [CA]2 [CA]/[CA]/ [DB]2 [CA] | %12
w: Je- sus has gone to pre-|pare us a home, I|want to go there, I|
w: robs us all here, the- re|none ev- er die, I|want to go there, I|
w: all the ship’s com- pa- ny|meet on the strand, I|want to be there, I|
w: le- lu- jah! we’ll shout a-|gain and a- gain, I|want to be there, don’t|
 [Ec]3 z2 [CA] | [Ec]2 [Ec]/[Ec]/ [Ec]2 [EA]/[EA]/ | [FB][FA][DF] [CE]2 [CE] | %15
w: do; Where|sick- ness nor sor- row nor|death ev- er come, I|
w: do; Where|loved ones will nev- er a-|gain say good- bye, I|
w: do; “With|songs on our lips and with|harps in our hands,” I|
w: you? And|close with the chor- us, A-|men and a- men, I|
 [EA][EB][Ec] [DB]2 [CA] | [CA]3 z2 ||"^Refrain" [Ac] | [ce]2 [ce]/[ce]/ [ce]2 [Ac] | %19
w: want to go there, don’t|you?|I|want to go there, I|
w: want to go there, don’t|you?|I|want to go there, I|
w: want to be there, don’t|you?|I|want to be there, I|
w: want to be there, don’t|you?|I|want to be there, I|
 [FB][FA][DF] [CE]2 ([CE]/[CE]/) | [CA]2 [CA]/[CA]/ [EB]2 [^Dc] | [EB]3 z2 [Ac] | %22
w: want to go there, I *|want to go there, I|do; I|
w: want to go there, I *|want to go there, I|do; I|
w: want to be there, I~ex- *|pect to be there, I|do; I|
w: want to be there, I~ex- *|pect to be there, I|do; I|
 [ce]2 [ce]/[ce]/ [ce]2 [Ac] | [FB][FA][DF] [CE]2 ([CE]/[CE]/) | [CA]2 [DB]/[Ec]/ [DB]2 [CA] | %25
w: want to go there, I|want to go there, I *|want to go there, don’t|
w: want to go there, I|want to go there, I *|want to go there, don’t|
w: want to be there, I|want to be there, I~ex- *|pect to be there, don’t|
w: want to be there, I|want to be there, I~ex- *|pect to be there, don’t|
 [CA]3 z2 |] %26
w: you?|
w: you?|
w: you?|
w: you?|
V:2
 ([A,,A,]/[A,,A,]/) | [A,,A,]2 [A,,A,]/[A,,A,]/ [A,,A,]<[A,,A,][A,,A,] | %2
 [D,A,]2 [F,A,]/[F,A,]/ A,2 [A,,A,] | [C,A,]2 [C,A,]/[C,A,]/ [E,G,]2 [C,A,] | [A,,A,]3 z2 [A,,A,] | %5
 [A,,A,]2 [A,,A,]/[A,,A,]/ [A,,A,]2 [A,,A,]/[A,,A,]/ | [D,A,]2 [F,A,]/[F,A,]/ A,2 [A,,A,] | %7
 [C,A,][E,G,][E,A,] [E,G,]2 [A,,A,] | [A,,A,]3 z2 ([A,,A,]/[A,,A,]/) | %9
 [A,,A,]2 [A,,A,]/[A,,A,]/ [A,,A,]2 [A,,A,]/[A,,A,]/ | [D,A,][D,A,][D,A,] [A,,A,]2 [A,,A,] | %11
 [A,,A,]2 [A,,A,]/[A,,A,]/ [E,G,]2 [A,,A,] | [A,,A,]3 z2 [A,,A,] | %13
 [A,,A,]2 [A,,A,]/[A,,A,]/ [A,,A,]2 [C,A,]/[C,A,]/ | [D,A,][D,A,][D,A,] [A,,A,]2 [A,,A,] | %15
 [C,A,][E,G,][E,A,] [E,G,]2 [A,,A,] | [A,,E,]3 z2 || [A,,A,] | %18
 [A,,A,]2 [A,,A,]/[A,,A,]/ [A,,A,]2 [A,,A,] | [D,A,][D,A,][D,A,] [A,,A,]2 ([A,,A,]/[A,,A,]/) | %20
 [A,,A,]2 [A,,A,]/[A,,A,]/ [E,G,]2 [B,,A,] | [E,G,]3 z2 [A,,A,] | %22
 [A,,A,]2 [A,,A,]/[A,,A,]/ [A,,A,]2 [A,,A,] | [D,A,][D,A,][D,A,] [A,,A,]2 ([A,,A,]/[A,,A,]/) | %24
 [E,A,]2 [E,G,]/[E,A,]/ [E,G,]2 [A,,A,] | [A,,E,]3 z2 |] %26
V:3
 x | x6 | x3 A,2 x | x6 | x6 | x6 | x3 A,2 x | x6 | x6 | x6 | x6 | x6 | x6 | x6 | x6 | x6 | x5 || %17
 x | x6 | x6 | x6 | x6 | x6 | x6 | x6 | x5 |] %26

